react/assets/icons/contact-book.svg

<svg role="img" xmlns="http://www.w3.org/2000/svg" width="48px" height="48px" viewBox="0 0 24 24" aria-labelledby="contactBookIconTitle" stroke-linecap="square" stroke-linejoin="miter" fill="none"> <title id="contactBookIconTitle">Contact Book</title> <path d="M8,3 L8,21"/> <path d="M20,2.99999899 L20,21 L6,21 C4.8954305,21 4,20.1045695 4,19 L4,4.99999899 C4,3.89542949 4.8954305,2.99999899 6,2.99999899 L20,2.99999899 Z"/> <path d="M8,17 C8,15 11.3333333,15.3333333 12.6666667,14 C13.3333333,13.3333333 11.3333333,13.3333333 11.3333333,10 C11.3333333,7.778 12.222,6.66666667 14,6.66666667 C15.778,6.66666667 16.6666667,7.778 16.6666667,10 C16.6666667,13.3333333 14.6666667,13.3333333 15.3333333,14 C16.6666667,15.3333333 20,15 20,17"/> </svg>

<svg xmlns="http://www.w3.org/2000/svg" width="48" height="48" viewBox="0 0 24 24" aria-labelledby="contactBookIconTitle" stroke-linecap="square" fill="none"><path d="M8 3v18M20 3v18H6a2 2 0 01-2-2V5a2 2 0 012-2h14z"/><path d="M8 17c0-2 3.333-1.667 4.667-3 .666-.667-1.334-.667-1.334-4 0-2.222.889-3.333 2.667-3.333 1.778 0 2.667 1.111 2.667 3.333 0 3.333-2 3.333-1.334 4C16.667 15.333 20 15 20 17"/></svg>
